X:346
T:Strathspey,A. RH.346
R:strathspey
S:Rev.R.Harrison’s MS,c1815,Cumbria
O:England
A:Temple Sowerby,Cumbria
Z:vmp.Simon Wilson. Review PJH, 2008.
M:C|
L:1/8
Q:1/2=70
K:D
A|F>DA>F B>GA>G|F>D (F/G/A) “~”d3f|\
F>DA>F B>GA>F|G>EE>F”~”G3:|!
B|A>FD>F d>FD>F|A>FD>F A3B|\
A>FD>F d>FD>F|G>EE>F”~”G3B|!
A>FD>F d>FD>F|A>FD>F”~”A3g|\
f>de>c d<BA>F|G>EE>F”~”G4|]

